X:108 
T:Leitrim Piper*, The  
B:CRE4.004 (gan ainm, no repeats)
F:file ID: cre.4/108leitr_p
S:Grier MS
L:1/8
M:6/8
R:jig
K:G
(3def|gdB GAB|Aag fed|gdB cde|dgf g2f|
gdB GAB|Aag fed|gdB cde|dgf g2 :|
g/a/|bgb afd|gfe fdd|bgb afd|gfe d2f|
gdB GAB|Aag fed|gdB cde|dgf g2 :|


%%%

